src/components/HostingOption/images/hosting-aws.svg

<svg width="21" height="12" viewBox="0 0 21 12" fill="none" xmlns="http://www.w3.org/2000/svg">
<g clip-path="url(#clip0)">
<path d="M6.32092 4.36371C6.32092 4.6098 6.34753 4.80933 6.39409 4.95566C6.4473 5.10198 6.51381 5.26161 6.60692 5.43454C6.64018 5.48775 6.65348 5.54096 6.65348 5.58752C6.65348 5.65403 6.61358 5.72054 6.52711 5.78705L6.10809 6.0664C6.04823 6.10631 5.98837 6.12626 5.93516 6.12626C5.86865 6.12626 5.80214 6.09301 5.73562 6.03315C5.64251 5.93338 5.56269 5.82696 5.49618 5.72054C5.42967 5.60747 5.36316 5.4811 5.29 5.32812C4.77121 5.94003 4.1194 6.24598 3.33456 6.24598C2.77586 6.24598 2.33024 6.08636 2.00433 5.7671C1.67842 5.44784 1.51215 5.02217 1.51215 4.49008C1.51215 3.92473 1.71168 3.4658 2.1174 3.11994C2.52312 2.77408 3.06186 2.60115 3.74693 2.60115C3.97307 2.60115 4.20586 2.62111 4.45195 2.65436C4.69805 2.68762 4.95079 2.74083 5.21683 2.80069V2.31515C5.21683 1.80967 5.11042 1.45716 4.90423 1.25097C4.69139 1.04478 4.33223 0.945017 3.82009 0.945017C3.5873 0.945017 3.34786 0.971622 3.10177 1.03148C2.85568 1.09134 2.61624 1.16451 2.38345 1.25762C2.27703 1.30418 2.19721 1.33078 2.15066 1.34409C2.1041 1.35739 2.07084 1.36404 2.04424 1.36404C1.95112 1.36404 1.90456 1.29753 1.90456 1.15785V0.831948C1.90456 0.72553 1.91787 0.645716 1.95112 0.599158C1.98438 0.5526 2.04424 0.506042 2.13735 0.459484C2.37014 0.339763 2.64949 0.239996 2.9754 0.160182C3.3013 0.073717 3.64716 0.0338101 4.01298 0.0338101C4.80446 0.0338101 5.38311 0.213391 5.75558 0.572553C6.12139 0.931715 6.30762 1.47711 6.30762 2.20874V4.36371H6.32092ZM3.62056 5.37468C3.84005 5.37468 4.06619 5.33478 4.30563 5.25496C4.54507 5.17515 4.75791 5.02882 4.93749 4.82929C5.0439 4.70292 5.12372 4.56324 5.16363 4.40361C5.20353 4.24399 5.23014 4.0511 5.23014 3.82496V3.54562C5.03725 3.49906 4.83107 3.45915 4.61823 3.43255C4.40539 3.40594 4.19921 3.39264 3.99302 3.39264C3.5474 3.39264 3.22149 3.4791 3.002 3.65869C2.78251 3.83827 2.6761 4.09101 2.6761 4.42357C2.6761 4.73617 2.75591 4.96896 2.92219 5.12859C3.08182 5.29487 3.31461 5.37468 3.62056 5.37468V5.37468ZM8.96143 6.09301C8.84171 6.09301 8.7619 6.07305 8.70869 6.02649C8.65548 5.98659 8.60892 5.89347 8.56901 5.7671L7.00599 0.625762C6.96609 0.492739 6.94613 0.406274 6.94613 0.359716C6.94613 0.253298 6.99934 0.193438 7.10576 0.193438H7.75757C7.88394 0.193438 7.97041 0.213391 8.01697 0.259949C8.07018 0.299856 8.11008 0.392972 8.14999 0.519344L9.26738 4.9224L10.305 0.519344C10.3382 0.386321 10.3781 0.299856 10.4313 0.259949C10.4845 0.220042 10.5777 0.193438 10.6974 0.193438H11.2295C11.3558 0.193438 11.4423 0.213391 11.4955 0.259949C11.5487 0.299856 11.5953 0.392972 11.6219 0.519344L12.6728 4.97561L13.8234 0.519344C13.8633 0.386321 13.9099 0.299856 13.9564 0.259949C14.0097 0.220042 14.0961 0.193438 14.2158 0.193438H14.8344C14.9408 0.193438 15.0007 0.246647 15.0007 0.359716C15.0007 0.392972 14.994 0.426228 14.9874 0.466135C14.9807 0.506042 14.9674 0.559251 14.9408 0.632413L13.3379 5.77375C13.298 5.90677 13.2514 5.99324 13.1982 6.03315C13.145 6.07305 13.0585 6.09966 12.9455 6.09966H12.3735C12.2471 6.09966 12.1606 6.0797 12.1074 6.03315C12.0542 5.98659 12.0077 5.90012 11.9811 5.7671L10.9501 1.47711L9.92585 5.76045C9.89259 5.89347 9.85268 5.97994 9.79947 6.02649C9.74627 6.07305 9.65315 6.09301 9.53343 6.09301H8.96143V6.09301ZM17.5082 6.27259C17.1623 6.27259 16.8164 6.23268 16.4839 6.15287C16.1513 6.07305 15.8919 5.98659 15.719 5.88682C15.6126 5.82696 15.5394 5.76045 15.5128 5.70059C15.4862 5.64073 15.4729 5.57422 15.4729 5.51436V5.17515C15.4729 5.03547 15.5261 4.96896 15.6259 4.96896C15.6658 4.96896 15.7057 4.97561 15.7456 4.98892C15.7855 5.00222 15.8454 5.02882 15.9119 5.05543C16.138 5.15519 16.3841 5.23501 16.6435 5.28822C16.9096 5.34143 17.1689 5.36803 17.435 5.36803C17.854 5.36803 18.1799 5.29487 18.4061 5.14854C18.6322 5.00222 18.7519 4.78938 18.7519 4.51668C18.7519 4.33045 18.6921 4.17748 18.5723 4.0511C18.4526 3.92473 18.2265 3.81166 17.9006 3.70524L16.9362 3.40594C16.4506 3.25297 16.0915 3.02683 15.872 2.72753C15.6525 2.43487 15.5394 2.10897 15.5394 1.76311C15.5394 1.48376 15.5993 1.23767 15.719 1.02483C15.8387 0.811994 15.9983 0.625762 16.1979 0.479437C16.3974 0.326461 16.6236 0.213391 16.8896 0.133577C17.1556 0.0537636 17.435 0.0205078 17.7276 0.0205078C17.874 0.0205078 18.0269 0.027159 18.1733 0.0471124C18.3262 0.0670659 18.4659 0.0936704 18.6056 0.120275C18.7386 0.153531 18.865 0.186787 18.9847 0.226693C19.1044 0.2666 19.1975 0.306507 19.2641 0.346414C19.3572 0.399623 19.4237 0.452832 19.4636 0.512693C19.5035 0.565902 19.5235 0.639065 19.5235 0.732181V1.04478C19.5235 1.18446 19.4702 1.25762 19.3705 1.25762C19.3173 1.25762 19.2308 1.23102 19.1177 1.17781C18.7386 1.00488 18.3129 0.918413 17.8407 0.918413C17.4616 0.918413 17.1623 0.978273 16.9561 1.10464C16.7499 1.23102 16.6435 1.4239 16.6435 1.6966C16.6435 1.88283 16.71 2.04246 16.843 2.16883C16.9761 2.2952 17.2222 2.42157 17.5747 2.53464L18.5191 2.83394C18.998 2.98692 19.3439 3.19976 19.5501 3.47245C19.7562 3.74515 19.856 4.05775 19.856 4.40361C19.856 4.68961 19.7961 4.94901 19.6831 5.17515C19.5634 5.40129 19.4037 5.60082 19.1975 5.76045C18.9914 5.92673 18.7453 6.04645 18.4593 6.13291C18.16 6.22603 17.8474 6.27259 17.5082 6.27259V6.27259Z" fill="white"/>
<path d="M18.7645 9.5054C16.5762 11.1216 13.397 11.9796 10.6634 11.9796C6.8323 11.9796 3.38035 10.5629 0.773104 8.20842C0.566918 8.02219 0.75315 7.76945 0.999243 7.91577C3.81933 9.55195 7.29788 10.543 10.8961 10.543C13.3238 10.543 15.9909 10.0375 18.4452 8.99991C18.811 8.83363 19.1236 9.23935 18.7645 9.5054Z" fill="white"/>
<path d="M19.6757 8.46712C19.3963 8.10796 17.8267 8.29419 17.115 8.38066C16.9021 8.40726 16.8689 8.22103 17.0618 8.08136C18.3122 7.2034 20.3674 7.45615 20.6068 7.7488C20.8463 8.0481 20.5403 10.1033 19.3697 11.0877C19.1901 11.2407 19.0172 11.1608 19.097 10.9613C19.3631 10.3028 19.955 8.81963 19.6757 8.46712V8.46712Z" fill="white"/>
</g>
<defs>
<clipPath id="clip0">
<rect width="20" height="11.96" fill="white" transform="translate(0.686951 0.0200195)"/>
</clipPath>
</defs>
</svg>

<svg fill="none" viewBox="0 0 21 12"><g fill="#fff" clip-path="url(#clip0)"><path d="M6.32 4.364c0 .246.028.445.074.592.053.146.12.306.213.479a.29.29 0 01.046.153c0 .066-.04.133-.126.199l-.419.28a.32.32 0 01-.173.06c-.066 0-.133-.034-.2-.094a2.058 2.058 0 01-.239-.312 5.148 5.148 0 01-.206-.393c-.519.612-1.17.918-1.955.918-.56 0-1.005-.16-1.33-.479-.327-.32-.493-.745-.493-1.277 0-.565.2-1.024.605-1.37.406-.346.945-.519 1.63-.519.226 0 .459.02.705.053.246.034.499.087.765.147v-.486c0-.505-.107-.858-.313-1.064-.213-.206-.572-.306-1.084-.306-.233 0-.472.027-.718.086a5.3 5.3 0 00-.719.227 1.91 1.91 0 01-.232.086.408.408 0 01-.107.02c-.093 0-.14-.066-.14-.206V.832c0-.106.014-.186.047-.233a.498.498 0 01.186-.14C2.37.34 2.65.24 2.975.16A4.032 4.032 0 014.013.034c.791 0 1.37.18 1.743.539.365.359.552.904.552 1.636v2.155h.013zm-2.7 1.01c.22 0 .446-.04.686-.119.24-.08.452-.226.631-.426a1.05 1.05 0 00.227-.425c.04-.16.066-.353.066-.579v-.28a5.553 5.553 0 00-.612-.112 5.01 5.01 0 00-.625-.04c-.446 0-.772.086-.991.266-.22.18-.326.432-.326.765 0 .312.08.545.246.705.16.166.393.246.699.246zm5.341.719c-.12 0-.2-.02-.252-.067-.054-.04-.1-.133-.14-.259L7.006.626c-.04-.133-.06-.22-.06-.266 0-.107.053-.167.16-.167h.652c.126 0 .212.02.259.067.053.04.093.133.133.26l1.117 4.402L10.305.52c.033-.133.073-.22.126-.26a.458.458 0 01.266-.066h.533c.126 0 .212.02.265.067.054.04.1.133.127.26l1.05 4.456L13.824.519c.04-.133.087-.22.133-.26a.434.434 0 01.26-.066h.618c.107 0 .167.054.167.167 0 .033-.007.066-.014.106a.952.952 0 01-.046.166l-1.603 5.142c-.04.133-.087.22-.14.26a.426.426 0 01-.253.066h-.572c-.126 0-.212-.02-.266-.067-.053-.046-.1-.133-.126-.266l-1.03-4.29L9.925 5.76c-.033.133-.073.22-.127.266-.053.047-.146.067-.266.067H8.96zm8.547.18c-.346 0-.692-.04-1.024-.12-.333-.08-.592-.166-.765-.266-.106-.06-.18-.127-.206-.186a.47.47 0 01-.04-.187v-.339c0-.14.053-.206.153-.206.04 0 .08.007.12.02.04.013.1.04.166.066.226.1.472.18.731.233.267.053.526.08.792.08.419 0 .745-.073.971-.22a.716.716 0 00.346-.631c0-.187-.06-.34-.18-.466s-.345-.24-.671-.346l-.965-.3c-.485-.152-.845-.378-1.064-.677a1.585 1.585 0 01-.333-.965c0-.28.06-.525.18-.738.12-.213.28-.4.479-.546a2.1 2.1 0 01.692-.345 2.89 2.89 0 01.838-.113c.146 0 .299.006.445.026.153.02.293.047.433.073.133.034.259.067.379.107.12.04.213.08.28.12a.58.58 0 01.199.166c.04.053.06.126.06.22v.312c0 .14-.054.213-.154.213a.692.692 0 01-.252-.08 3.043 3.043 0 00-1.277-.26c-.38 0-.679.06-.885.187-.206.126-.313.319-.313.592a.63.63 0 00.2.472c.133.126.38.253.732.366l.944.299c.479.153.825.366 1.031.638.206.273.306.586.306.932 0 .286-.06.545-.173.771a1.8 1.8 0 01-.485.585 2.143 2.143 0 01-.739.373c-.299.093-.612.14-.95.14zm1.257 3.232c-2.189 1.617-5.368 2.475-8.102 2.475-3.83 0-7.283-1.417-9.89-3.772-.206-.186-.02-.439.226-.292 2.82 1.636 6.299 2.627 9.897 2.627A19.75 19.75 0 0018.446 9c.365-.166.678.24.319.505z"/><path d="M19.676 8.467c-.28-.359-1.85-.173-2.561-.086-.213.026-.246-.16-.053-.3 1.25-.878 3.305-.625 3.545-.332.24.3-.067 2.354-1.237 3.339-.18.153-.353.073-.273-.127.266-.658.858-2.141.579-2.494z"/></g><defs><clipPath id="clip0"><path fill="#fff" d="M0 0h20v11.96H0z" transform="translate(.687 .02)"/></clipPath></defs></svg>
